dist/img/masks/home_credit_mask.svg

<svg width="150" height="83" viewBox="0 0 150 83" fill="none" xmlns="http://www.w3.org/2000/svg">

<path fill-rule="evenodd" clip-rule="evenodd" d="M148.358 50.1702H139.727C138.684 50.1702 137.904 49.2176 138.121 48.2073L142.659 27.0471C142.876 26.0368 142.098 25.0842 141.053 25.0842H132.449C131.403 25.0842 130.626 24.1316 130.842 23.1212L135.384 1.96296C135.601 0.952587 134.823 0 133.778 0H74.2356C73.4597 0 72.7912 0.536879 72.6293 1.28814L70.957 9.07847C70.7969 9.82787 70.1284 10.3647 69.3525 10.3666L16.5236 10.4468C15.7496 10.4468 15.0811 10.9836 14.9192 11.7349L0.0363763 81.037C-0.18019 82.0474 0.597564 83 1.64273 83H53.7805C54.5582 83 55.2305 82.4594 55.3887 81.7063L56.4734 76.55C56.6316 75.7969 57.3039 75.2563 58.0817 75.2563H118.31C119.085 75.2563 119.754 74.7194 119.916 73.9681L124.754 51.4565C124.916 50.7052 125.584 50.1684 126.36 50.1684H135.673C136.718 50.1684 137.495 51.1209 137.279 52.1313L132.731 73.2933C132.514 74.3037 133.29 75.2544 134.334 75.2563L143.819 75.2749C144.601 75.2749 145.275 74.7343 145.431 73.9756L149.966 52.1183C150.175 51.1098 149.397 50.1665 148.358 50.1665V50.1702Z" fill="#878E9C"/>

</svg>

<svg width="150" height="83" viewBox="0 0 150 83" fill="none" xmlns="http://www.w3.org/2000/svg"><path fill-rule="evenodd" clip-rule="evenodd" d="M148.358 50.17h-8.631c-1.043 0-1.823-.952-1.606-1.963l4.538-21.16c.217-1.01-.561-1.963-1.606-1.963h-8.604c-1.046 0-1.823-.952-1.607-1.963l4.542-21.158C135.601.953 134.823 0 133.778 0H74.236a1.64 1.64 0 00-1.607 1.288l-1.672 7.79a1.639 1.639 0 01-1.604 1.289l-52.83.08c-.773 0-1.442.537-1.604 1.288L.036 81.037C-.18 82.047.598 83 1.643 83H53.78c.777 0 1.45-.54 1.608-1.294l1.084-5.156a1.64 1.64 0 011.609-1.294h60.228a1.64 1.64 0 001.606-1.288l4.838-22.512a1.638 1.638 0 011.606-1.288h9.313a1.63 1.63 0 011.606 1.963l-4.548 21.162c-.217 1.01.559 1.961 1.603 1.963l9.485.019c.782 0 1.456-.54 1.612-1.3l4.535-21.857c.209-1.008-.569-1.952-1.608-1.952v.004z" fill="#878E9C"/></svg>
